public/images/poses-lg/WarriorOne.svg

<svg width="800" height="800" fill="none" xmlns="http://www.w3.org/2000/svg"><g clip-path="url(#a)" stroke="#000" stroke-width="5" stroke-miterlimit="10"><path d="M454.847 501.09c24.866-4.384 28.757-5.365 28.757-5.365s2.501 26.793 2.501 32.515c0 2.5 29.062 6.633 40.007 7.504 10.945.868 106.789 16.854 121.65 22.167 14.868 5.316 23.82 2.548 28.617 15.602 4.798 13.059-15.86 101.224-18.64 124.641-2.783 23.415-5.316 52.762.623 61.726 5.94 8.962 52.481 19.468 58.769 21.116 6.288 1.647 11.889 3.378 12.192 5.563.304 2.185-.662 6.548-10.129 7.44-9.467.896-80.714 1.776-84.169-.511-3.461-2.287-10.502-5.21-9.491-21.507 1.01-16.307.425-41.388-2.075-66.606-2.5-25.217-12.712-74.617.414-104.839 0 0-47.058 13.442-91.671 14.42-44.611.984-80.865-8.289-89.671-11.614 0 0-102.165 40.442-123.96 49.956-21.797 9.514-132.119 56.043-164.291 68.909-32.173 12.868-47.001 21.203-50.367 28.969-3.372 7.768-1.02 22.491 4.94 27.583 5.96 5.091 10.856 5.09 13.67 7.278 2.812 2.188 3.054 6.045-6.041 6.045-9.099 0-27.227 1.925-38.149-13.832-10.923-15.765-8.561-21.95 0-30.737 8.56-8.788 10.1-16.948 27.198-33.71s126.92-83.723 170.531-103.023c43.613-19.298 83.23-62.329 105.021-77.535 19.97-13.935 27.649-9.386 30.007-17.509 1.406-4.853 2.5-10.005 2.5-10.005s26.818-2.091 41.257-4.641Z" fill="#fff"/><path d="M454.847 501.09c24.866-4.384 28.757-5.365 28.757-5.365s2.501 26.793 2.501 32.515c0 2.5 29.062 6.633 40.007 7.504 10.945.868 106.789 16.854 121.65 22.167 14.868 5.316 23.82 2.548 28.617 15.602 4.798 13.059-15.86 101.224-18.64 124.641-2.783 23.415-5.316 52.762.623 61.726 5.94 8.962 52.481 19.468 58.769 21.116 6.288 1.647 11.889 3.378 12.192 5.563.304 2.185-.662 6.548-10.129 7.44-9.467.896-80.714 1.776-84.169-.511-3.461-2.287-10.502-5.21-9.491-21.507 1.01-16.307.425-41.388-2.075-66.606-2.5-25.217-12.712-74.617.414-104.839 0 0-47.058 13.442-91.671 14.42-44.611.984-80.865-8.289-89.671-11.614 0 0-102.165 40.442-123.96 49.956-21.797 9.514-132.119 56.043-164.291 68.909-32.173 12.868-47.001 21.203-50.367 28.969-3.372 7.768-1.02 22.491 4.94 27.583 5.96 5.091 10.856 5.09 13.67 7.278 2.812 2.188 3.054 6.045-6.041 6.045-9.099 0-27.227 1.925-38.149-13.832-10.923-15.765-8.561-21.95 0-30.737 8.56-8.788 10.1-16.948 27.198-33.71s126.92-83.723 170.531-103.023c43.613-19.298 83.23-62.329 105.021-77.535 19.97-13.935 27.649-9.386 30.007-17.509 1.406-4.853 2.5-10.005 2.5-10.005s26.818-2.091 41.257-4.641ZM624.539 717.782h30.722M131.548 693.677l21.117 29.263M131.548 693.677l21.117 29.263"/><path d="M446.649 507.93c19.013-1.259 38.079-3.109 38.079-3.109s-.21-47.674 2.757-60.709c2.975-13.033 4.665-13.377 10.492-21.362 5.827-7.977 6.514-19.686.21-32.131-6.297-12.451-33.107-44.172-35.519-56.921-2.412-12.752-13.753-27.768-4.068-50.57l-32.506-25.011s-14.779 83.834-15.36 107.556c-.583 23.725 4.911 79.552 4.653 96.174-.254 16.624-2.837 45.32-2.837 45.32s22.884 1.505 34.099.763Z" fill="#fff"/><path d="M446.649 507.93c19.013-1.259 38.079-3.109 38.079-3.109s-.21-47.674 2.757-60.709c2.975-13.033 4.665-13.377 10.492-21.362 5.827-7.977 6.514-19.686.21-32.131-6.297-12.451-33.107-44.172-35.519-56.921-2.412-12.752-13.753-27.768-4.068-50.57l-32.506-25.011s-14.779 83.834-15.36 107.556c-.583 23.725 4.911 79.552 4.653 96.174-.254 16.624-2.837 45.32-2.837 45.32s22.884 1.505 34.099.763Z"/><path d="M434.987 274.289c-4.865-4.524-5.301-9.651-8.547-16.202-5.143-10.402 6.645-23.844 18.525-29.047 11.877-5.202 34.61 54.203 25.49 58.201-5.404 2.364-18.814 2.066-28.313-5.987-5.465-4.63-7.155-6.965-7.155-6.965Z" fill="#fff"/><path d="M434.987 274.289c-4.865-4.524-5.301-9.651-8.547-16.202-5.143-10.402 6.645-23.844 18.525-29.047 11.877-5.202 34.61 54.203 25.49 58.201-5.404 2.364-18.814 2.066-28.313-5.987-5.465-4.63-7.155-6.965-7.155-6.965ZM438.61 319.71s20.405 27.335 28.46 22.711"/><path d="M439.495 278.929c-5.804-6.231-7.248-11.497-4.303-14.14 2.95-2.647 8.678-4.32 11.726-8.912 3.048-4.59-6.144-13.162-5.839-18.683.309-5.519 7.8-8.588 10.537-5.444 2.732 3.145 2.545-1.908-.164-5.664-2.488-3.444-14.529-20.165-38.364-8.039-19.252 9.798-27.491 20.91-24.654 43.035 2.841 22.131 18.305 28.482 7.917 45.84-12.849 21.474-33.253 8.986-49.431 38.011-6.185 11.088-.244 34.545 9.39 46.96 10.343 13.334 30.02 22.622 39.878 22.471 23.731-.354 25.75-9.59 25.75-9.59l-7.789-32.313s11.802-68.136 16.094-82.498c4.29-14.36 9.252-11.034 9.252-11.034Z" fill="#000"/><path d="M421.72 339.541c-2.099 3.512-8.183 12.01-9.413 15.691-1.232 3.686-2.728 20.725 7.282 29.071 10.013 8.348 28.677 1.092 35.051-10.154 6.374-11.25 6.104-15.197 8.532-20.204 2.428-5.01 25.939-41.639 41.044-69.069 15.101-27.438 30.407-70.13 35.488-97.383 5.08-27.252 10.855-56.544 13.211-67.677 2.358-11.131 10.699-45.172 6.504-57.807-4.19-12.633-14.182-12.614-18.594 4.105-4.418 16.712-3.404 35.881-6.835 53.369-3.428 17.486-17.469 65.745-26.268 86.502-8.796 20.756-5.22 20.395-33.315 66.227-28.097 45.835-52.687 67.329-52.687 67.329Z" fill="#fff"/><path d="M421.72 339.541c-2.099 3.512-8.183 12.01-9.413 15.691-1.232 3.686-2.728 20.725 7.282 29.071 10.013 8.348 28.677 1.092 35.051-10.154 6.374-11.25 6.104-15.197 8.532-20.204 2.428-5.01 25.939-41.639 41.044-69.069 15.101-27.438 30.407-70.13 35.488-97.383 5.08-27.252 10.855-56.544 13.211-67.677 2.358-11.131 10.699-45.172 6.504-57.807-4.19-12.633-14.182-12.614-18.594 4.105-4.418 16.712-3.404 35.881-6.835 53.369-3.428 17.486-17.469 65.745-26.268 86.502-8.796 20.756-5.22 20.395-33.315 66.227-28.097 45.835-52.687 67.329-52.687 67.329Z"/></g><defs><clipPath id="a"><path fill="#fff" d="M0 0h800v800H0z"/></clipPath></defs></svg>

<svg width="800" height="800" viewBox="0 0 800 800" fill="none" xmlns="http://www.w3.org/2000/svg">
<g clip-path="url(#clip0_298_12116)">
<path d="M454.847 501.09C479.713 496.706 483.604 495.725 483.604 495.725C483.604 495.725 486.105 522.518 486.105 528.24C486.105 530.74 515.167 534.873 526.112 535.744C537.057 536.612 632.901 552.598 647.762 557.911C662.63 563.227 671.582 560.459 676.379 573.513C681.177 586.572 660.519 674.737 657.739 698.154C654.956 721.569 652.423 750.916 658.362 759.88C664.302 768.842 710.843 779.348 717.131 780.996C723.419 782.643 729.02 784.374 729.323 786.559C729.627 788.744 728.661 793.107 719.194 793.999C709.727 794.895 638.48 795.775 635.025 793.488C631.564 791.201 624.523 788.278 625.534 771.981C626.544 755.674 625.959 730.593 623.459 705.375C620.959 680.158 610.747 630.758 623.873 600.536C623.873 600.536 576.815 613.978 532.202 614.956C487.591 615.94 451.337 606.667 442.531 603.342C442.531 603.342 340.366 643.784 318.571 653.298C296.774 662.812 186.452 709.341 154.28 722.207C122.107 735.075 107.279 743.41 103.913 751.176C100.541 758.944 102.893 773.667 108.853 778.759C114.813 783.85 119.709 783.849 122.523 786.037C125.335 788.225 125.577 792.082 116.482 792.082C107.383 792.082 89.2549 794.007 78.3331 778.25C67.4103 762.485 69.772 756.3 78.3331 747.513C86.8921 738.725 88.4323 730.565 105.531 713.803C122.629 697.041 232.451 630.08 276.062 610.78C319.675 591.482 359.292 548.451 381.083 533.245C401.053 519.31 408.732 523.859 411.09 515.736C412.496 510.883 413.59 505.731 413.59 505.731C413.59 505.731 440.408 503.64 454.847 501.09Z" fill="white" stroke="black" stroke-width="5" stroke-miterlimit="10"/>
<path d="M454.847 501.09C479.713 496.706 483.604 495.725 483.604 495.725C483.604 495.725 486.105 522.518 486.105 528.24C486.105 530.74 515.167 534.873 526.112 535.744C537.057 536.612 632.901 552.598 647.762 557.911C662.63 563.227 671.582 560.459 676.379 573.513C681.177 586.572 660.519 674.737 657.739 698.154C654.956 721.569 652.423 750.916 658.362 759.88C664.302 768.842 710.843 779.348 717.131 780.996C723.419 782.643 729.02 784.374 729.323 786.559C729.627 788.744 728.661 793.107 719.194 793.999C709.727 794.895 638.48 795.775 635.025 793.488C631.564 791.201 624.523 788.278 625.534 771.981C626.544 755.674 625.959 730.593 623.459 705.375C620.959 680.158 610.747 630.758 623.873 600.536C623.873 600.536 576.815 613.978 532.202 614.956C487.591 615.94 451.337 606.667 442.531 603.342C442.531 603.342 340.366 643.784 318.571 653.298C296.774 662.812 186.452 709.341 154.28 722.207C122.107 735.075 107.279 743.41 103.913 751.176C100.541 758.944 102.893 773.667 108.853 778.759C114.813 783.85 119.709 783.849 122.523 786.037C125.335 788.225 125.577 792.082 116.482 792.082C107.383 792.082 89.2549 794.007 78.3331 778.25C67.4103 762.485 69.772 756.3 78.3331 747.513C86.8921 738.725 88.4323 730.565 105.531 713.803C122.629 697.041 232.451 630.08 276.062 610.78C319.675 591.482 359.292 548.451 381.083 533.245C401.053 519.31 408.732 523.859 411.09 515.736C412.496 510.883 413.59 505.731 413.59 505.731C413.59 505.731 440.408 503.64 454.847 501.09Z" stroke="black" stroke-width="5" stroke-miterlimit="10"/>
<path d="M624.539 717.782H655.261" stroke="black" stroke-width="5" stroke-miterlimit="10"/>
<path d="M131.548 693.677L152.665 722.94" stroke="black" stroke-width="5" stroke-miterlimit="10"/>
<path d="M131.548 693.677L152.665 722.94" stroke="black" stroke-width="5" stroke-miterlimit="10"/>
<path d="M446.649 507.93C465.662 506.671 484.728 504.821 484.728 504.821C484.728 504.821 484.518 457.147 487.485 444.112C490.46 431.079 492.15 430.735 497.977 422.75C503.804 414.773 504.491 403.064 498.187 390.619C491.89 378.168 465.08 346.447 462.668 333.698C460.256 320.946 448.915 305.93 458.6 283.128L426.094 258.117C426.094 258.117 411.315 341.951 410.734 365.673C410.151 389.398 415.645 445.225 415.387 461.847C415.133 478.471 412.55 507.167 412.55 507.167C412.55 507.167 435.434 508.672 446.649 507.93Z" fill="white" stroke="black" stroke-width="5" stroke-miterlimit="10"/>
<path d="M446.649 507.93C465.662 506.671 484.728 504.821 484.728 504.821C484.728 504.821 484.518 457.147 487.485 444.112C490.46 431.079 492.15 430.735 497.977 422.75C503.804 414.773 504.491 403.064 498.187 390.619C491.89 378.168 465.08 346.447 462.668 333.698C460.256 320.946 448.915 305.93 458.6 283.128L426.094 258.117C426.094 258.117 411.315 341.951 410.734 365.673C410.151 389.398 415.645 445.225 415.387 461.847C415.133 478.471 412.55 507.167 412.55 507.167C412.55 507.167 435.434 508.672 446.649 507.93Z" stroke="black" stroke-width="5" stroke-miterlimit="10"/>
<path d="M434.987 274.289C430.122 269.765 429.686 264.638 426.44 258.087C421.297 247.685 433.085 234.243 444.965 229.04C456.842 223.838 479.575 283.243 470.455 287.241C465.051 289.605 451.641 289.307 442.142 281.254C436.677 276.624 434.987 274.289 434.987 274.289Z" fill="white" stroke="black" stroke-width="5" stroke-miterlimit="10"/>
<path d="M434.987 274.289C430.122 269.765 429.686 264.638 426.44 258.087C421.297 247.685 433.085 234.243 444.965 229.04C456.842 223.838 479.575 283.243 470.455 287.241C465.051 289.605 451.641 289.307 442.142 281.254C436.677 276.624 434.987 274.289 434.987 274.289Z" stroke="black" stroke-width="5" stroke-miterlimit="10"/>
<path d="M438.61 319.71C438.61 319.71 459.015 347.045 467.07 342.421" stroke="black" stroke-width="5" stroke-miterlimit="10"/>
<path d="M439.495 278.929C433.691 272.698 432.247 267.432 435.192 264.789C438.142 262.142 443.87 260.469 446.918 255.877C449.966 251.287 440.774 242.715 441.079 237.194C441.388 231.675 448.879 228.606 451.616 231.75C454.348 234.895 454.161 229.842 451.452 226.086C448.964 222.642 436.923 205.921 413.088 218.047C393.836 227.845 385.597 238.957 388.434 261.082C391.275 283.213 406.739 289.564 396.351 306.922C383.502 328.396 363.098 315.908 346.92 344.933C340.735 356.021 346.676 379.478 356.31 391.893C366.653 405.227 386.33 414.515 396.188 414.364C419.919 414.01 421.938 404.774 421.938 404.774L414.149 372.461C414.149 372.461 425.951 304.325 430.243 289.963C434.533 275.603 439.495 278.929 439.495 278.929Z" fill="black" stroke="black" stroke-width="5" stroke-miterlimit="10"/>
<path d="M421.72 339.541C419.621 343.053 413.537 351.551 412.307 355.232C411.075 358.918 409.579 375.957 419.589 384.303C429.602 392.651 448.266 385.395 454.64 374.149C461.014 362.899 460.744 358.952 463.172 353.945C465.6 348.935 489.111 312.306 504.216 284.876C519.317 257.438 534.623 214.746 539.704 187.493C544.784 160.241 550.559 130.949 552.915 119.816C555.273 108.685 563.614 74.6442 559.419 62.0086C555.229 49.3762 545.237 49.3949 540.825 66.1142C536.407 82.8262 537.421 101.995 533.99 119.483C530.562 136.969 516.521 185.228 507.722 205.985C498.926 226.741 502.502 226.38 474.407 272.212C446.31 318.047 421.72 339.541 421.72 339.541Z" fill="white" stroke="black" stroke-width="5" stroke-miterlimit="10"/>
<path d="M421.72 339.541C419.621 343.053 413.537 351.551 412.307 355.232C411.075 358.918 409.579 375.957 419.589 384.303C429.602 392.651 448.266 385.395 454.64 374.149C461.014 362.899 460.744 358.952 463.172 353.945C465.6 348.935 489.111 312.306 504.216 284.876C519.317 257.438 534.623 214.746 539.704 187.493C544.784 160.241 550.559 130.949 552.915 119.816C555.273 108.685 563.614 74.6442 559.419 62.0086C555.229 49.3762 545.237 49.3949 540.825 66.1142C536.407 82.8262 537.421 101.995 533.99 119.483C530.562 136.969 516.521 185.228 507.722 205.985C498.926 226.741 502.502 226.38 474.407 272.212C446.31 318.047 421.72 339.541 421.72 339.541Z" stroke="black" stroke-width="5" stroke-miterlimit="10"/>
</g>
<defs>
<clipPath id="clip0_298_12116">
<rect width="800" height="800" fill="white"/>
</clipPath>
</defs>
</svg>
